apps/www/public/images/career/icons/globe-dark.svg

<svg width="11" height="10" viewBox="0 0 11 10" fill="none" xmlns="http://www.w3.org/2000/svg">
<path d="M1.52136 4.5H2.4939C3.04618 4.5 3.4939 4.94772 3.4939 5.5V6C3.4939 6.55228 3.94161 7 4.4939 7C5.04618 7 5.4939 7.44772 5.4939 8V9.47254M3.9939 0.96776V1.75C3.9939 2.44036 4.55354 3 5.2439 3H5.4939C6.04618 3 6.4939 3.44772 6.4939 4C6.4939 4.55228 6.94161 5 7.4939 5C8.04618 5 8.4939 4.55228 8.4939 4C8.4939 3.44772 8.94161 3 9.4939 3L10.0261 3M7.4939 9.24394V8C7.4939 7.44772 7.94161 7 8.4939 7H10.0261M10.4939 5C10.4939 7.48528 8.47918 9.5 5.9939 9.5C3.50862 9.5 1.4939 7.48528 1.4939 5C1.4939 2.51472 3.50862 0.5 5.9939 0.5C8.47918 0.5 10.4939 2.51472 10.4939 5Z" stroke="#3ECF8E" stroke-linecap="round" stroke-linejoin="round"/>
</svg>

<svg xmlns="http://www.w3.org/2000/svg" width="11" height="10" fill="none" viewBox="0 0 11 10"><path stroke="#3ecf8e" stroke-linecap="round" stroke-linejoin="round" d="M1.521 4.5h.973a1 1 0 0 1 1 1V6a1 1 0 0 0 1 1 1 1 0 0 1 1 1v1.473M3.994.968v.782c0 .69.56 1.25 1.25 1.25h.25a1 1 0 0 1 1 1 1 1 0 1 0 2 0 1 1 0 0 1 1-1h.532M7.494 9.244V8a1 1 0 0 1 1-1h1.532m.468-2a4.5 4.5 0 1 1-9 0 4.5 4.5 0 0 1 9 0"/></svg>
